src/resources/icons-ec/src/all/organigram.svg

<?xml version="1.0" encoding="UTF-8" ?>
<svg xmlns="http://www.w3.org/2000/svg" viewBox="0 0 48 48"><defs><style
    >.cls-1{fill:none;}.cls-2{fill-rule:evenodd;}</style></defs><g
    id="transparant_bg"
  ><rect class="cls-1" y="0" width="48" height="48" /></g><g id="Layer_1"><path
      class="cls-2"
      d="M2,46v-11H14v11H2Zm32,0v-11h12v11h-12ZM11,28v3H7v-6.93l15-.07v-6h4v6l15,.07v6.93h-4v-3H11Zm3-14V2h20V14H14Z"
    /></g></svg>

<?xml version="1.0" encoding="UTF-8"?>
<svg width="48px" height="48px" viewBox="0 0 48 48" version="1.1" xmlns="http://www.w3.org/2000/svg" xmlns:xlink="http://www.w3.org/1999/xlink">
    <title>EC/Icons/General/2XL_48x48px/Icon-Organigram</title>
    <defs>
        <path d="M2,46 L2,35 L14,35 L14,46 L2,46 Z M34,46 L34,35 L46,35 L46,46 L34,46 Z M11,28 L11,31 L7,31 L7,24.0720721 L22,24 L22,18 L26,18 L26,24 L41,24.0720721 L41,31 L37,31 L37,28 L26,28 L22,28 L11,28 Z M14,14 L14,2 L34,2 L34,14 L14,14 Z" id="path-1"></path>
    </defs>
    <g id="EC/Icons/General/2XL_48x48px/Icon-Organigram" stroke="none" stroke-width="1">
        <mask id="mask-2">
            <use xlink:href="#path-1"></use>
        </mask>
        <use id="Organigram" xlink:href="#path-1"></use>
    </g>
</svg>
